X:26
T:John Ryan's
Z: id:dc-polka-14
M:2/4
L:1/8
K:D Major
dd B/c/d/B/|AF AF|dd B/c/d/B/|AF ED|!
dd B/c/d/B/|AF Ad/e/|fd ec|d2 d2:|!
fd de/f/|gf ed/e/|fd A>d|fa a>g|!
fd de/f/|gf ed/e/|fd ec|d2 d2:|!

